dist/img/svg/property__item-icon--8.svg

<svg width="48" height="48" viewBox="0 0 48 48" fill="none" xmlns="http://www.w3.org/2000/svg">
<circle cx="24" cy="24" r="24" fill="#1F2120"/>
<path d="M23 13V15.2051C22.5104 15.3694 22.0657 15.6079 21.752 15.9609C21.2353 16.5421 21 17.2778 21 18C21 18.4351 21.272 18.8203 21.4531 19.2285C20.1014 19.5179 19 20.5675 19 22C19 23.645 20.355 25 22 25H26C26.565 25 27 25.435 27 26C27 26.565 26.565 27 26 27H24C23.0833 27 22.2686 27.3798 21.752 27.9609C21.2353 28.5421 21 29.2778 21 30C21 30.7222 21.2353 31.4579 21.752 32.0391C22.0657 32.3921 22.5104 32.6306 23 32.7949V35H25V32.7949C25.4896 32.6306 25.9343 32.3921 26.248 32.0391C26.7647 31.4579 27 30.7222 27 30C27 29.5649 26.728 29.1797 26.5469 28.7715C27.8986 28.4821 29 27.4325 29 26C29 24.355 27.645 23 26 23H22C21.435 23 21 22.565 21 22C21 21.435 21.435 21 22 21H24C24.9167 21 25.7314 20.6202 26.248 20.0391C26.7647 19.4579 27 18.7222 27 18C27 17.2778 26.7647 16.5421 26.248 15.9609C25.9343 15.6079 25.4896 15.3694 25 15.2051V13H23ZM24 17C24.4167 17 24.6019 17.1202 24.752 17.2891C24.902 17.4579 25 17.7222 25 18C25 18.2778 24.902 18.5421 24.752 18.7109C24.6019 18.8798 24.4167 19 24 19C23.5833 19 23.3981 18.8798 23.248 18.7109C23.098 18.5421 23 18.2778 23 18C23 17.7222 23.098 17.4579 23.248 17.2891C23.3981 17.1202 23.5833 17 24 17ZM24 29C24.4167 29 24.6019 29.1202 24.752 29.2891C24.902 29.4579 25 29.7222 25 30C25 30.2778 24.902 30.5421 24.752 30.7109C24.6019 30.8798 24.4167 31 24 31C23.5833 31 23.3981 30.8798 23.248 30.7109C23.098 30.5421 23 30.2778 23 30C23 29.7222 23.098 29.4579 23.248 29.2891C23.3981 29.1202 23.5833 29 24 29Z" fill="white"/>
</svg>

<svg width="48" height="48" viewBox="0 0 48 48" fill="none" xmlns="http://www.w3.org/2000/svg"><circle cx="24" cy="24" r="24" fill="#1F2120"/><path d="M23 13v2.205c-.49.164-.934.403-1.248.756A3.05 3.05 0 0021 18c0 .435.272.82.453 1.229C20.101 19.518 19 20.567 19 22c0 1.645 1.355 3 3 3h4c.565 0 1 .435 1 1s-.435 1-1 1h-2c-.917 0-1.731.38-2.248.96A3.05 3.05 0 0021 30c0 .722.235 1.458.752 2.04.314.352.758.59 1.248.755V35h2v-2.205c.49-.164.934-.403 1.248-.756A3.05 3.05 0 0027 30c0-.435-.272-.82-.453-1.229C27.899 28.482 29 27.433 29 26c0-1.645-1.355-3-3-3h-4c-.565 0-1-.435-1-1s.435-1 1-1h2c.917 0 1.731-.38 2.248-.96A3.05 3.05 0 0027 18a3.05 3.05 0 00-.752-2.04c-.314-.352-.758-.59-1.248-.755V13h-2zm1 4c.417 0 .602.12.752.29.15.168.248.432.248.71 0 .278-.098.542-.248.71-.15.17-.335.29-.752.29s-.602-.12-.752-.29A1.095 1.095 0 0123 18c0-.278.098-.542.248-.71.15-.17.335-.29.752-.29zm0 12c.417 0 .602.12.752.29.15.168.248.432.248.71 0 .278-.098.542-.248.71-.15.17-.335.29-.752.29s-.602-.12-.752-.29A1.095 1.095 0 0123 30c0-.278.098-.542.248-.71.15-.17.335-.29.752-.29z" fill="#fff"/></svg>
